static/img/kroki/02658994890d0fe70d6d281839003186.svg

<?xml version="1.0" encoding="us-ascii" standalone="no"?><svg xmlns="http://www.w3.org/2000/svg" xmlns:xlink="http://www.w3.org/1999/xlink" contentStyleType="text/css" height="820px" preserveAspectRatio="none" style="width:448px;height:820px;" version="1.1" viewBox="0 0 448 820" width="448px" zoomAndPan="magnify"><defs/><g><!--class digitalocean_container_registry_repository_tag--><g id="elem_digitalocean_container_registry_repository_tag"><rect codeLine="23" fill="#3D176E" height="179.2734" id="digitalocean_container_registry_repository_tag" rx="2.5" ry="2.5" style="stroke:#000D19;stroke-width:0.5;" width="433" x="7" y="633.85"/><ellipse cx="22" cy="653.7445" fill="#ADD1B2" rx="11" ry="11" style="stroke:#181818;stroke-width:1.0;"/><path d="M24.9688,659.3852 Q24.3906,659.682 23.75,659.8227 Q23.1094,659.9789 22.4063,659.9789 Q19.9063,659.9789 18.5781,658.3383 Q17.2656,656.682 17.2656,653.557 Q17.2656,650.432 18.5781,648.7758 Q19.9063,647.1195 22.4063,647.1195 Q23.1094,647.1195 23.75,647.2758 Q24.4063,647.432 24.9688,647.7289 L24.9688,650.4477 Q24.3438,649.8695 23.75,649.6039 Q23.1563,649.3227 22.5313,649.3227 Q21.1875,649.3227 20.5,650.4008 Q19.8125,651.4633 19.8125,653.557 Q19.8125,655.6508 20.5,656.7289 Q21.1875,657.7914 22.5313,657.7914 Q23.1563,657.7914 23.75,657.5258 Q24.3438,657.2445 24.9688,656.6664 L24.9688,659.3852 Z " fill="#000000"/><text fill="#D9B8FF" font-family="Helvetica" font-size="17" lengthAdjust="spacing" textLength="391" x="41" y="659.6298">digitalocean_container_registry_repository_tag</text><line style="stroke:#000D19;stroke-width:0.5;" x1="8" x2="439" y1="673.6391" y2="673.6391"/><text fill="#D9B8FF" font-family="sans-serif" font-size="14" font-weight="bold" lengthAdjust="spacing" textLength="188" x="18" y="695.6342">compressed_size_bytes</text><text fill="#D9B8FF" font-family="sans-serif" font-size="14" lengthAdjust="spacing" textLength="44" x="206" y="695.6342">: int64</text><text fill="#D9B8FF" font-family="sans-serif" font-size="14" font-weight="bold" lengthAdjust="spacing" textLength="124" x="18" y="721.9311">manifest_digest</text><text fill="#D9B8FF" font-family="sans-serif" font-size="14" lengthAdjust="spacing" textLength="48" x="142" y="721.9311">: string</text><text fill="#D9B8FF" font-family="sans-serif" font-size="14" font-weight="bold" lengthAdjust="spacing" textLength="112" x="18" y="748.2279">registry_name</text><text fill="#D9B8FF" font-family="sans-serif" font-size="14" lengthAdjust="spacing" textLength="48" x="130" y="748.2279">: string</text><text fill="#D9B8FF" font-family="sans-serif" font-size="14" font-weight="bold" lengthAdjust="spacing" textLength="132" x="18" y="774.5248">repository_name</text><text fill="#D9B8FF" font-family="sans-serif" font-size="14" lengthAdjust="spacing" textLength="48" x="150" y="774.5248">: string</text><text fill="#D9B8FF" font-family="sans-serif" font-size="14" font-weight="bold" lengthAdjust="spacing" textLength="83" x="18" y="800.8217">size_bytes</text><text fill="#D9B8FF" font-family="sans-serif" font-size="14" lengthAdjust="spacing" textLength="44" x="101" y="800.8217">: int64</text></g><!--class digitalocean_resource--><g id="elem_digitalocean_resource"><rect codeLine="30" fill="#3D176E" height="74.0859" id="digitalocean_resource" rx="2.5" ry="2.5" style="stroke:#000D19;stroke-width:0.5;" width="223" x="218" y="438.76"/><ellipse cx="233" cy="458.6545" fill="#ADD1B2" rx="11" ry="11" style="stroke:#181818;stroke-width:1.0;"/><path d="M235.9688,464.2952 Q235.3906,464.592 234.75,464.7327 Q234.1094,464.8889 233.4063,464.8889 Q230.9063,464.8889 229.5781,463.2483 Q228.2656,461.592 228.2656,458.467 Q228.2656,455.342 229.5781,453.6858 Q230.9063,452.0295 233.4063,452.0295 Q234.1094,452.0295 234.75,452.1858 Q235.4063,452.342 235.9688,452.6389 L235.9688,455.3577 Q235.3438,454.7795 234.75,454.5139 Q234.1563,454.2327 233.5313,454.2327 Q232.1875,454.2327 231.5,455.3108 Q230.8125,456.3733 230.8125,458.467 Q230.8125,460.5608 231.5,461.6389 Q232.1875,462.7014 233.5313,462.7014 Q234.1563,462.7014 234.75,462.4358 Q235.3438,462.1545 235.9688,461.5764 L235.9688,464.2952 Z " fill="#000000"/><text fill="#D9B8FF" font-family="Helvetica" font-size="17" lengthAdjust="spacing" textLength="181" x="252" y="464.5398">digitalocean_resource</text><line style="stroke:#000D19;stroke-width:0.5;" x1="219" x2="440" y1="478.5491" y2="478.5491"/><text fill="#D9B8FF" font-family="sans-serif" font-size="14" font-weight="bold" lengthAdjust="spacing" textLength="27" x="229" y="500.5442">urn</text><text fill="#D9B8FF" font-family="sans-serif" font-size="14" lengthAdjust="spacing" textLength="48" x="256" y="500.5442">: string</text></g><!--class resource--><g id="elem_resource"><rect codeLine="33" fill="#3D176E" height="310.7578" id="resource" rx="2.5" ry="2.5" style="stroke:#000D19;stroke-width:0.5;" width="227" x="87" y="7"/><ellipse cx="155.75" cy="26.8945" fill="#ADD1B2" rx="11" ry="11" style="stroke:#181818;stroke-width:1.0;"/><path d="M158.7188,32.5352 Q158.1406,32.832 157.5,32.9727 Q156.8594,33.1289 156.1563,33.1289 Q153.6563,33.1289 152.3281,31.4883 Q151.0156,29.832 151.0156,26.707 Q151.0156,23.582 152.3281,21.9258 Q153.6563,20.2695 156.1563,20.2695 Q156.8594,20.2695 157.5,20.4258 Q158.1563,20.582 158.7188,20.8789 L158.7188,23.5977 Q158.0938,23.0195 157.5,22.7539 Q156.9063,22.4727 156.2813,22.4727 Q154.9375,22.4727 154.25,23.5508 Q153.5625,24.6133 153.5625,26.707 Q153.5625,28.8008 154.25,29.8789 Q154.9375,30.9414 156.2813,30.9414 Q156.9063,30.9414 157.5,30.6758 Q158.0938,30.3945 158.7188,29.8164 L158.7188,32.5352 Z " fill="#000000"/><text fill="#D9B8FF" font-family="Helvetica" font-size="17" lengthAdjust="spacing" textLength="71" x="181.25" y="32.7798">resource</text><line style="stroke:#000D19;stroke-width:0.5;" x1="88" x2="313" y1="46.7891" y2="46.7891"/><text fill="#D9B8FF" font-family="sans-serif" font-size="14" font-weight="bold" lengthAdjust="spacing" textLength="29" x="98" y="68.7842">age</text><text fill="#D9B8FF" font-family="sans-serif" font-size="14" lengthAdjust="spacing" textLength="66" x="127" y="68.7842">: duration</text><text fill="#D9B8FF" font-family="sans-serif" font-size="14" font-weight="bold" lengthAdjust="spacing" textLength="43" x="98" y="95.0811">atime</text><text fill="#D9B8FF" font-family="sans-serif" font-size="14" lengthAdjust="spacing" textLength="70" x="141" y="95.0811">: datetime</text><text fill="#D9B8FF" font-family="sans-serif" font-size="14" font-weight="bold" lengthAdjust="spacing" textLength="43" x="98" y="121.3779">ctime</text><text fill="#D9B8FF" font-family="sans-serif" font-size="14" lengthAdjust="spacing" textLength="70" x="141" y="121.3779">: datetime</text><text fill="#D9B8FF" font-family="sans-serif" font-size="14" font-weight="bold" lengthAdjust="spacing" textLength="14" x="98" y="147.6748">id</text><text fill="#D9B8FF" font-family="sans-serif" font-size="14" lengthAdjust="spacing" textLength="48" x="112" y="147.6748">: string</text><text fill="#D9B8FF" font-family="sans-serif" font-size="14" font-weight="bold" lengthAdjust="spacing" textLength="33" x="98" y="173.9717">kind</text><text fill="#D9B8FF" font-family="sans-serif" font-size="14" lengthAdjust="spacing" textLength="48" x="131" y="173.9717">: string</text><text fill="#D9B8FF" font-family="sans-serif" font-size="14" font-weight="bold" lengthAdjust="spacing" textLength="90" x="98" y="200.2686">last_access</text><text fill="#D9B8FF" font-family="sans-serif" font-size="14" lengthAdjust="spacing" textLength="66" x="188" y="200.2686">: duration</text><text fill="#D9B8FF" font-family="sans-serif" font-size="14" font-weight="bold" lengthAdjust="spacing" textLength="90" x="98" y="226.5654">last_update</text><text fill="#D9B8FF" font-family="sans-serif" font-size="14" lengthAdjust="spacing" textLength="66" x="188" y="226.5654">: duration</text><text fill="#D9B8FF" font-family="sans-serif" font-size="14" font-weight="bold" lengthAdjust="spacing" textLength="48" x="98" y="252.8623">mtime</text><text fill="#D9B8FF" font-family="sans-serif" font-size="14" lengthAdjust="spacing" textLength="70" x="146" y="252.8623">: datetime</text><text fill="#D9B8FF" font-family="sans-serif" font-size="14" font-weight="bold" lengthAdjust="spacing" textLength="43" x="98" y="279.1592">name</text><text fill="#D9B8FF" font-family="sans-serif" font-size="14" lengthAdjust="spacing" textLength="48" x="141" y="279.1592">: string</text><text fill="#D9B8FF" font-family="sans-serif" font-size="14" font-weight="bold" lengthAdjust="spacing" textLength="34" x="98" y="305.4561">tags</text><text fill="#D9B8FF" font-family="sans-serif" font-size="14" lengthAdjust="spacing" textLength="171" x="132" y="305.4561">: dictionary[string, string]</text></g><!--reverse link digitalocean_resource to digitalocean_container_registry_repository_tag--><g id="link_digitalocean_resource_digitalocean_container_registry_repository_tag"><path codeLine="45" d="M306.6185,529.847 C292.9785,561.457 279.81,591.97 261.92,633.43 " fill="none" id="digitalocean_resource-backto-digitalocean_container_registry_repository_tag" style="stroke:#FFAF37;stroke-width:2.0;"/><polygon fill="none" points="313.75,513.32,301.1095,527.4698,312.1275,532.2242,313.75,513.32" style="stroke:#FFAF37;stroke-width:2.0;"/></g><!--reverse link resource to digitalocean_container_registry_repository_tag--><g id="link_resource_digitalocean_container_registry_repository_tag"><path codeLine="46" d="M196.7279,335.8794 C196.2479,396.6794 197.01,449.09 200.5,512.85 C202.67,552.51 207.13,596.21 211.55,633.4 " fill="none" id="resource-backto-digitalocean_container_registry_repository_tag" style="stroke:#FFAF37;stroke-width:2.0;"/><polygon fill="none" points="196.87,317.88,190.7281,335.8321,202.7277,335.9268,196.87,317.88" style="stroke:#FFAF37;stroke-width:2.0;"/></g><!--reverse link resource to digitalocean_resource--><g id="link_resource_digitalocean_resource"><path codeLine="47" d="M271.5108,334.8088 C290.1708,379.8388 301.97,408.35 314.47,438.52 " fill="none" id="resource-backto-digitalocean_resource" style="stroke:#FFAF37;stroke-width:2.0;"/><polygon fill="none" points="264.62,318.18,265.9679,337.1057,277.0537,332.5119,264.62,318.18" style="stroke:#FFAF37;stroke-width:2.0;"/></g><!--SRC=[jP9FQzj04CNl-XGBkPaQxAQDuz1BQYZj9PIcjrB4U7Sa3vPsnUoeGVtptJkoOYDBIa8FFMcPzzjvRsQr8uS6oqeQKsAvHOv9t9ElWA4qjypXOHEAmEOYoo2xN0t53y7BYy0Tb6W-Ol43XImCYQyxidkFCPhNFUazs7tEeVQkQoyCFgg4NdhKfe0ORqMOjhLWBunRRw-pR4WEcrvSkkNg2aTOO8VyY2mM2xTS3v4NhPwT-qJSqqyqo_xIxeBWAER8ua0zcx8bUY57Wnxr9pD-1kV8v-Pjh_QboyGU-Qn-lmCN7bewWoBsRQ8WOv2cmireAbnVksmr2Nzw2avikphZA2U18bW4dreT0qWpfOmvHU563rM8946F0hdvbSncDfGLwr-6BeswzNJR2CRPxCQGbwit2fJWASCegJRNJojfBnrAjLDZh-iQA2UdaJRbysTg0iqLQhPu25gpxtKvycS8v0SZLpC81TzMX3fp1uBjkPrueaRkBA6k_hoWNfA2jRgeWSD1gQksrq0f9tn6kz1dw3gIRQy1DzywxTKZyrr7dLxAkz_p-VmVdppvVxUFMl8N]--></g></svg>

<svg xmlns="http://www.w3.org/2000/svg" width="448" height="820" viewBox="0 0 448 820"><rect width="433" height="179.273" x="7" y="633.85" fill="#3D176E" rx="2.5" ry="2.5" style="stroke:#000d19;stroke-width:.5"/><circle cx="22" cy="653.745" r="11" fill="#ADD1B2" style="stroke:#181818;stroke-width:1"/><path d="M24.969 659.385q-.578.297-1.219.438-.64.156-1.344.156-2.5 0-3.828-1.64-1.312-1.657-1.312-4.782t1.312-4.781q1.328-1.656 3.828-1.656.703 0 1.344.156.656.156 1.219.453v2.719q-.625-.578-1.219-.844-.594-.281-1.219-.281-1.343 0-2.031 1.078-.687 1.062-.687 3.156t.687 3.172q.688 1.062 2.031 1.062.625 0 1.219-.265.594-.281 1.219-.86z"/><text x="41" y="659.63" fill="#D9B8FF" font-family="Helvetica" font-size="17" textLength="391">digitalocean_container_registry_repository_tag</text><path d="M8 673.639h431" style="stroke:#000d19;stroke-width:.5"/><text x="18" y="695.634" fill="#D9B8FF" font-family="sans-serif" font-size="14" font-weight="bold" textLength="188">compressed_size_bytes</text><text x="206" y="695.634" fill="#D9B8FF" font-family="sans-serif" font-size="14" textLength="44">: int64</text><text x="18" y="721.931" fill="#D9B8FF" font-family="sans-serif" font-size="14" font-weight="bold" textLength="124">manifest_digest</text><text x="142" y="721.931" fill="#D9B8FF" font-family="sans-serif" font-size="14" textLength="48">: string</text><text x="18" y="748.228" fill="#D9B8FF" font-family="sans-serif" font-size="14" font-weight="bold" textLength="112">registry_name</text><text x="130" y="748.228" fill="#D9B8FF" font-family="sans-serif" font-size="14" textLength="48">: string</text><text x="18" y="774.525" fill="#D9B8FF" font-family="sans-serif" font-size="14" font-weight="bold" textLength="132">repository_name</text><text x="150" y="774.525" fill="#D9B8FF" font-family="sans-serif" font-size="14" textLength="48">: string</text><text x="18" y="800.822" fill="#D9B8FF" font-family="sans-serif" font-size="14" font-weight="bold" textLength="83">size_bytes</text><text x="101" y="800.822" fill="#D9B8FF" font-family="sans-serif" font-size="14" textLength="44">: int64</text><rect width="223" height="74.086" x="218" y="438.76" fill="#3D176E" rx="2.5" ry="2.5" style="stroke:#000d19;stroke-width:.5"/><circle cx="233" cy="458.654" r="11" fill="#ADD1B2" style="stroke:#181818;stroke-width:1"/><path d="M235.969 464.295q-.578.297-1.219.438-.64.156-1.344.156-2.5 0-3.828-1.64-1.312-1.657-1.312-4.782t1.312-4.781q1.328-1.656 3.828-1.656.703 0 1.344.156.656.156 1.219.453v2.719q-.625-.579-1.219-.844-.594-.281-1.219-.281-1.344 0-2.031 1.078-.687 1.062-.687 3.156t.687 3.172q.688 1.062 2.031 1.062.625 0 1.219-.265.594-.281 1.219-.86z"/><text x="252" y="464.54" fill="#D9B8FF" font-family="Helvetica" font-size="17" textLength="181">digitalocean_resource</text><path d="M219 478.549h221" style="stroke:#000d19;stroke-width:.5"/><text x="229" y="500.544" fill="#D9B8FF" font-family="sans-serif" font-size="14" font-weight="bold" textLength="27">urn</text><text x="256" y="500.544" fill="#D9B8FF" font-family="sans-serif" font-size="14" textLength="48">: string</text><rect width="227" height="310.758" x="87" y="7" fill="#3D176E" rx="2.5" ry="2.5" style="stroke:#000d19;stroke-width:.5"/><circle cx="155.75" cy="26.895" r="11" fill="#ADD1B2" style="stroke:#181818;stroke-width:1"/><path d="M158.719 32.535q-.578.297-1.219.438-.64.156-1.344.156-2.5 0-3.828-1.64-1.312-1.657-1.312-4.782t1.312-4.781q1.328-1.656 3.828-1.656.703 0 1.344.156.656.156 1.219.453v2.719q-.625-.578-1.219-.844-.594-.281-1.219-.281-1.344 0-2.031 1.078-.687 1.062-.687 3.156t.687 3.172q.688 1.062 2.031 1.062.625 0 1.219-.265.594-.281 1.219-.86z"/><text x="181.25" y="32.78" fill="#D9B8FF" font-family="Helvetica" font-size="17" textLength="71">resource</text><path d="M88 46.789h225" style="stroke:#000d19;stroke-width:.5"/><text x="98" y="68.784" fill="#D9B8FF" font-family="sans-serif" font-size="14" font-weight="bold" textLength="29">age</text><text x="127" y="68.784" fill="#D9B8FF" font-family="sans-serif" font-size="14" textLength="66">: duration</text><text x="98" y="95.081" fill="#D9B8FF" font-family="sans-serif" font-size="14" font-weight="bold" textLength="43">atime</text><text x="141" y="95.081" fill="#D9B8FF" font-family="sans-serif" font-size="14" textLength="70">: datetime</text><text x="98" y="121.378" fill="#D9B8FF" font-family="sans-serif" font-size="14" font-weight="bold" textLength="43">ctime</text><text x="141" y="121.378" fill="#D9B8FF" font-family="sans-serif" font-size="14" textLength="70">: datetime</text><text x="98" y="147.675" fill="#D9B8FF" font-family="sans-serif" font-size="14" font-weight="bold" textLength="14">id</text><text x="112" y="147.675" fill="#D9B8FF" font-family="sans-serif" font-size="14" textLength="48">: string</text><text x="98" y="173.972" fill="#D9B8FF" font-family="sans-serif" font-size="14" font-weight="bold" textLength="33">kind</text><text x="131" y="173.972" fill="#D9B8FF" font-family="sans-serif" font-size="14" textLength="48">: string</text><text x="98" y="200.269" fill="#D9B8FF" font-family="sans-serif" font-size="14" font-weight="bold" textLength="90">last_access</text><text x="188" y="200.269" fill="#D9B8FF" font-family="sans-serif" font-size="14" textLength="66">: duration</text><text x="98" y="226.565" fill="#D9B8FF" font-family="sans-serif" font-size="14" font-weight="bold" textLength="90">last_update</text><text x="188" y="226.565" fill="#D9B8FF" font-family="sans-serif" font-size="14" textLength="66">: duration</text><text x="98" y="252.862" fill="#D9B8FF" font-family="sans-serif" font-size="14" font-weight="bold" textLength="48">mtime</text><text x="146" y="252.862" fill="#D9B8FF" font-family="sans-serif" font-size="14" textLength="70">: datetime</text><text x="98" y="279.159" fill="#D9B8FF" font-family="sans-serif" font-size="14" font-weight="bold" textLength="43">name</text><text x="141" y="279.159" fill="#D9B8FF" font-family="sans-serif" font-size="14" textLength="48">: string</text><text x="98" y="305.456" fill="#D9B8FF" font-family="sans-serif" font-size="14" font-weight="bold" textLength="34">tags</text><text x="132" y="305.456" fill="#D9B8FF" font-family="sans-serif" font-size="14" textLength="171">: dictionary[string, string]</text><g fill="none"><path d="M306.619 529.847c-13.64 31.61-26.809 62.123-44.699 103.583" style="stroke:#ffaf37;stroke-width:2"/><path d="m313.75 513.32-12.64 14.15 11.017 4.754z" style="stroke:#ffaf37;stroke-width:2"/></g><path fill="none" d="M196.728 335.88c-.48 60.8.282 113.21 3.772 176.97 2.17 39.66 6.63 83.36 11.05 120.55m-14.68-315.52-6.142 17.952 12 .095z" style="stroke:#ffaf37;stroke-width:2"/><g fill="none"><path d="M271.51 334.809c18.66 45.03 30.46 73.541 42.96 103.711" style="stroke:#ffaf37;stroke-width:2"/><path d="m264.62 318.18 1.348 18.926 11.086-4.594z" style="stroke:#ffaf37;stroke-width:2"/></g></svg>
